X:1
T:Title
%%score { ( 1 3 ) | 2 }
L:1/8
M:4/4
K:Bb
V:1 treble nm="Grand Piano"
V:3 treble 
V:2 bass 
V:1
 z4 z2[Q:1/4=100] [DF]2 | [DB]3 [Dc] BAGA | [DB]2 [DF]4 [DB]2 | [Fd]3 [Ec] [DB][EA][FB][Fd] | %4
[M:3/4] c6 |[M:1/4] F2 |[M:4/4] [DB]3 [Ec] [Fd][DF][_D=E][=DF] | [EG]4 [FA]2 [FB]2 | %8
 [Fc]3 [FA] [=EG][DEB][CEA][B,EG] |[M:3/4] F6 |[M:1/4] F2 |[M:4/4] F3 G ABcd | %12
 [Ae]2 [Ae]2 z [Ac][_A=B][=Ac] | d2 B2 B2 [=Ec]2 |[M:3/4] c6 |[M:1/4] F2 | %16
[M:4/4] f3 [Fe] [Fd][Fc][B,GB][B,F] | [B,FA]2 [B,EG]4 [C=EG]2 | ABcd [Ae]2 [EFA]2 | %19
[M:3/4] [DFB]6 |] %20
V:2
 z4 z2 [B,,B,]2 | [B,,B,]3 [B,,B,] [F,CE][F,CE][F,A,E][F,E] | [B,,F,]2 [B,,B,]4 [B,,F,]2 | %3
 [B,,B,]3 [B,,B,] [B,,F,][C,F,][D,B,][B,,B,] |[M:3/4] [F,A,F]2 [C,B,]2 [F,A,]2 |[M:1/4] [F,A,E]2 | %6
[M:4/4] [B,,B,]3 [B,,B,] [B,,B,][B,,B,][B,,B,][B,,B,] | [E,B,]4 [E,C]2 [D,B,]2 | %8
 [C,A,]3 [C,C] [C,C]C,C,C, |[M:3/4] [F,A,C]6 |[M:1/4] [F,A,C]2 | %11
[M:4/4] [F,A,C]3 [F,B,D] [F,CE][F,DF][F,EF][F,DF] | [F,C]2 [F,C]2 z [F,E][F,D][F,E] | %13
 [B,FB]2 [B,DF]2[K:bass] [G,C=E]2 [C,B,]2 |[M:3/4] [F,A,F]2 [G,B,]2 [A,C]2 | %15
[M:1/4][K:treble] [CE]2 |[M:4/4] [B,DF]3[K:bass] [B,,B,] [B,,B,][C,A,]D,D, | E,2 E,4 C,2 | %18
 [F,CE][F,B,D][F,A,F][F,B,F] [F,C]2 F,2 |[M:3/4] B,,6 |] %20
V:3
 x8 | x8 | x8 | x8 |[M:3/4] z2 =E2 F2 |[M:1/4] x2 |[M:4/4] x8 | x8 | x8 |[M:3/4] x6 |[M:1/4] x2 | %11
[M:4/4] x8 | x8 | x8 |[M:3/4] z2 =E2 _E2 |[M:1/4] x2 |[M:4/4] x8 | x8 | x8 |[M:3/4] x6 |] %20

